usr/share/icons/biglinux-icons-material/scalable/apps/virt-viewer.svg

<?xml version="1.0" encoding="UTF-8" standalone="no"?>
<svg
   width="24"
   height="24"
   viewBox="0 0 6.349875 6.349875"
   version="1.1"
   id="svg4"
   sodipodi:docname="virt-viewer.svg"
   inkscape:version="1.3 (0e150ed6c4, 2023-07-21)"
   xmlns:inkscape="http://www.inkscape.org/namespaces/inkscape"
   xmlns:sodipodi="http://sodipodi.sourceforge.net/DTD/sodipodi-0.dtd"
   xmlns="http://www.w3.org/2000/svg"
   xmlns:svg="http://www.w3.org/2000/svg">
  <defs
     id="defs4">
    <radialGradient
       fx="0"
       fy="0"
       cx="0"
       cy="0"
       r="1"
       gradientUnits="userSpaceOnUse"
       gradientTransform="matrix(0,16.500002,-16.500002,0,8.999998,0.749999)"
       spreadMethod="pad"
       id="radialGradient12763-3">
      <stop
         style="stop-opacity:1;stop-color:#a4a4a4"
         offset="0"
         id="stop12759-6" />
      <stop
         style="stop-opacity:1;stop-color:#626262"
         offset="1"
         id="stop12761-7" />
    </radialGradient>
  </defs>
  <sodipodi:namedview
     id="namedview4"
     pagecolor="#ffffff"
     bordercolor="#000000"
     borderopacity="0.25"
     inkscape:showpageshadow="2"
     inkscape:pageopacity="0.0"
     inkscape:pagecheckerboard="0"
     inkscape:deskcolor="#d1d1d1"
     inkscape:zoom="3.4250485"
     inkscape:cx="-52.408017"
     inkscape:cy="-19.415784"
     inkscape:window-width="2560"
     inkscape:window-height="998"
     inkscape:window-x="0"
     inkscape:window-y="0"
     inkscape:window-maximized="1"
     inkscape:current-layer="svg4" />
  <g
     id="g12749-5"
     transform="matrix(0.35277082,0,0,0.35277082,-1.1965686e-4,-9.2712777e-6)"
     style="fill:none">
    <g
       id="g12751-3">
      <g
         id="g12757-5">
        <path
           d="m 7.195,0.836 c 0.09,0 0.176,-0.012 0.258,-0.035 1.078,-0.071 2.156,-0.067 3.231,0.008 0.976,0.078 1.921,0.289 2.836,0.636 1.519,0.625 2.558,1.711 3.121,3.254 0.316,0.93 0.507,1.887 0.566,2.867 0.078,1.235 0.051,2.465 -0.086,3.696 -0.105,0.863 -0.328,1.691 -0.672,2.488 -0.637,1.383 -1.672,2.336 -3.101,2.859 C 12.191,17 11,17.207 9.773,17.227 8.398,17.301 7.035,17.195 5.684,16.918 3.203,16.367 1.668,14.852 1.09,12.375 0.844,11.262 0.73,10.133 0.754,8.992 0.727,7.777 0.855,6.582 1.141,5.402 1.75,3.09 3.219,1.656 5.547,1.102 6.09,0.969 6.641,0.879 7.195,0.836 Z"
           style="fill:url(#radialGradient12763-3);fill-rule:evenodd;stroke:none"
           id="path12765-6" />
      </g>
    </g>
  </g>
  <path
     id="circle11857"
     style="fill:#4fcf71;fill-opacity:1;fill-rule:evenodd;stroke-width:0.12494;paint-order:fill markers stroke"
     d="m 4.8852196,3.0204749 a 2.248914,2.248914 0 0 0 -2.248914,2.2489143 2.248914,2.248914 0 0 0 0.1498586,0.8066531 c 0.2207569,0.01434 0.4427755,0.015713 0.6655794,0.00413 C 3.8835681,6.0728515 4.3034195,6.0001986 4.7121067,5.8621021 5.2164476,5.6770765 5.5815556,5.3408821 5.8065925,4.853398 5.9279297,4.5722335 6.0064887,4.2794125 6.0427486,3.9749161 6.0653674,3.7727422 6.0792186,3.5703254 6.0851187,3.36773 A 2.248914,2.248914 0 0 0 4.8852196,3.0204749 Z" />
  <path
     id="path15267"
     style="fill:#ffffff;fill-opacity:1;stroke-width:0.132683"
     d="M 4.4947274,3.6761889 V 5.0026968 H 3.964021 L 4.7148646,5.8610255 C 5.1645384,5.6954263 5.5030077,5.4091925 5.7302866,5.0026968 H 5.290529 V 3.6761889 Z" />
  <g
     id="g9"
     transform="matrix(0.25926323,0,0,0.25926323,3.2988518,-0.02546056)">
    <rect
       x="-7.6214476"
       y="6.7882032"
       width="14.287"
       height="11.112"
       rx="0.31799999"
       ry="0.33700001"
       fill="#2e2e2e"
       id="rect4" />
    <path
       d="M -6.8274476,7.5822032 H 5.8725514 V 17.107203 H -6.8274476 Z"
       fill="#585858"
       id="path5" />
  </g>
  <path
     id="path9"
     style="fill:#64cc5f;fill-opacity:1;fill-rule:evenodd;stroke:none;stroke-width:0.352771"
     d="m 4.8549052,2.9945903 a 2.2361743,2.2361743 0 0 0 -2.2365119,2.2359952 2.2361743,2.2361743 0 0 0 0.1700121,0.842826 c 0.2188834,0.014103 0.4382264,0.015492 0.6588615,0.00362 C 3.8801163,6.0699715 4.300508,5.9968945 4.7086638,5.8589613 5.2127728,5.6744622 5.5779176,5.3386554 5.8026324,4.8507739 5.9239854,4.5696159 6.0027815,4.2772495 6.0398225,3.9728086 6.0625105,3.7689442 6.0759125,3.5654163 6.0816795,3.3614884 A 2.2361743,2.2361743 0 0 0 4.8549052,2.9945903 Z" />
  <path
     id="path15"
     style="fill:#ffffff;fill-rule:evenodd;stroke:none;stroke-width:0.352771"
     d="m 3.9226808,4.1107793 v 0.1865482 a 0.18734563,0.18734563 0 0 0 0.187065,0.1865483 1.6769547,1.6769547 0 0 1 1.4252079,0.7989019 C 5.6188537,5.1800681 5.692892,5.0667183 5.757158,4.9427534 A 2.049533,2.049533 0 0 0 4.1097458,4.1107793 Z m 0,0.7467097 v 0.1865483 a 0.18734563,0.18734563 0 0 0 0.187065,0.1860315 c 0.3683042,0 0.6862499,0.2144671 0.8371417,0.5250222 C 5.060622,5.696828 5.166075,5.6289696 5.2626243,5.5520066 5.0436006,5.1390133 4.6093701,4.857489 4.1097458,4.857489 Z M 4.296294,5.6026485 A 0.37328265,0.37328265 0 0 0 3.9573033,6.0372387 C 4.202309,6.0028977 4.4429206,5.9464017 4.6797256,5.8682601 A 0.37328265,0.37328265 0 0 0 4.296294,5.6026485 Z" />
</svg>

<svg xmlns="http://www.w3.org/2000/svg" width="24" height="24" viewBox="0 0 6.35 6.35"><defs><radialGradient id="a" cx="0" cy="0" r="1" fx="0" fy="0" gradientTransform="matrix(0 16.5 -16.5 0 9 .75)" gradientUnits="userSpaceOnUse" spreadMethod="pad"><stop offset="0" style="stop-opacity:1;stop-color:#a4a4a4"/><stop offset="1" style="stop-opacity:1;stop-color:#626262"/></radialGradient></defs><g style="fill:none"><path d="M7.195.836c.09 0 .176-.012.258-.035a23.86 23.86 0 0 1 3.231.008 10.26 10.26 0 0 1 2.836.636c1.519.625 2.558 1.711 3.121 3.254.316.93.507 1.887.566 2.867a21.227 21.227 0 0 1-.086 3.696 8.976 8.976 0 0 1-.672 2.488c-.637 1.383-1.672 2.336-3.101 2.859a11.693 11.693 0 0 1-3.575.618 15.998 15.998 0 0 1-4.089-.309c-2.481-.551-4.016-2.066-4.594-4.543a14.244 14.244 0 0 1-.336-3.383c-.027-1.215.101-2.41.387-3.59.609-2.312 2.078-3.746 4.406-4.3A10.27 10.27 0 0 1 7.195.836Z" style="fill:url(#a);fill-rule:evenodd;stroke:none" transform="scale(.35277)"/></g><path d="M4.885 3.02a2.249 2.249 0 0 0-2.249 2.25 2.249 2.249 0 0 0 .15.806c.22.014.443.016.666.004.432-.007.851-.08 1.26-.218a1.87 1.87 0 0 0 1.095-1.009c.12-.28.2-.574.236-.878.022-.202.036-.405.042-.607a2.249 2.249 0 0 0-1.2-.348Z" style="fill:#4fcf71;fill-opacity:1;fill-rule:evenodd;stroke-width:.12494;paint-order:fill markers stroke"/><path d="M4.495 3.676v1.327h-.531l.75.858a1.86 1.86 0 0 0 1.016-.858h-.44V3.676Z" style="fill:#fff;fill-opacity:1;stroke-width:.132683"/><g transform="matrix(.25926 0 0 .25926 3.299 -.025)"><rect width="14.287" height="11.112" x="-7.621" y="6.788" fill="#2e2e2e" rx=".318" ry=".337"/><path fill="#585858" d="M-6.827 7.582h12.7v9.525h-12.7Z"/></g><path d="M4.855 2.995A2.236 2.236 0 0 0 2.618 5.23a2.236 2.236 0 0 0 .17.842c.22.015.439.016.66.004.432-.007.853-.08 1.26-.218.505-.185.87-.52 1.095-1.008.121-.281.2-.574.237-.878.023-.204.036-.408.042-.612a2.236 2.236 0 0 0-1.227-.366Z" style="fill:#64cc5f;fill-opacity:1;fill-rule:evenodd;stroke:none;stroke-width:.352771"/><path d="M3.923 4.11v.187a.187.187 0 0 0 .187.187 1.677 1.677 0 0 1 1.425.799c.084-.103.158-.216.222-.34A2.05 2.05 0 0 0 4.11 4.11Zm0 .747v.187a.187.187 0 0 0 .187.186.93.93 0 0 1 .837.525c.114-.058.22-.126.316-.203a1.304 1.304 0 0 0-1.153-.695Zm.373.746a.373.373 0 0 0-.339.434 4.13 4.13 0 0 0 .723-.169.373.373 0 0 0-.384-.265Z" style="fill:#fff;fill-rule:evenodd;stroke:none;stroke-width:.352771"/></svg>
